packages/foundations/assets/icons/functional/images/devices/telephone_14_filled.svg

<svg width="14" height="14" viewBox="0 0 14 14" fill="none" xmlns="http://www.w3.org/2000/svg">
<g clip-path="url(#clip0_2204_2754)">
<path fill-rule="evenodd" clip-rule="evenodd" d="M1.66248 4.7214C1.66248 7.82861 6.19209 12.3996 9.24406 12.3996C10.6527 12.3996 12.3375 11.0324 12.3375 9.77579C12.3375 9.40293 12.2131 9.03007 11.9232 8.74003L10.9426 7.74572C10.7217 7.52477 10.4593 7.4143 10.1831 7.4143C9.87931 7.4143 9.57548 7.53857 9.35453 7.75951L8.34643 8.76768C7.17261 7.82861 6.37166 6.98621 5.23922 5.70185L6.24733 4.67996C6.46827 4.45901 6.5926 4.15518 6.5926 3.85135C6.5926 3.60282 6.50971 3.34044 6.33022 3.14707L5.30825 2.04229C5.00449 1.72467 4.63163 1.6004 4.23112 1.6004C3.01586 1.6004 1.66248 3.27134 1.66248 4.7214Z" fill="#1A1C1F"/>
</g>
<defs>
<clipPath id="clip0_2204_2754">
<rect width="14" height="14" fill="white"/>
</clipPath>
</defs>
</svg>

<svg xmlns="http://www.w3.org/2000/svg" width="14" height="14" fill="none"><g clip-path="url(#a)"><path fill="#1A1C1F" fill-rule="evenodd" d="M1.662 4.721c0 3.108 4.53 7.679 7.582 7.679 1.409 0 3.094-1.368 3.094-2.624 0-.373-.125-.746-.415-1.036l-.98-.994a1.06 1.06 0 0 0-.76-.332c-.304 0-.608.125-.828.346L8.346 8.768c-1.173-.94-1.974-1.782-3.107-3.066L6.247 4.68c.221-.221.346-.525.346-.829 0-.248-.083-.51-.263-.704L5.308 2.042c-.304-.317-.676-.442-1.077-.442-1.215 0-2.569 1.671-2.569 3.121" clip-rule="evenodd"/></g><defs><clipPath id="a"><path fill="#fff" d="M0 0h14v14H0z"/></clipPath></defs></svg>
